symbolic/32x32/mimetypes/application-x-trash.svg

<svg xmlns="http://www.w3.org/2000/svg" width="32" height="32" version="1.1">
 <path style="opacity:0.2" d="M 6.375,3 C 5.61325,3 5,3.6244 5,4.4 V 29.6 C 5,30.37504 5.61325,31 6.375,31 h 19.25 C 26.3862,31 27,30.37504 27,29.6 V 12 L 20,10 18,3 Z"/>
 <path style="fill:#e4e4e4" d="M 6.375,2 C 5.61325,2 5,2.6244 5,3.4 V 28.6 C 5,29.37504 5.61325,30 6.375,30 h 19.25 C 26.3862,30 27,29.37504 27,28.6 V 11 L 20,9 18,2 Z"/>
 <path style="opacity:0.2" d="M 27,12 18,3 v 7.59375 C 18,11.373375 18.62775,12 19.40625,12 Z"/>
 <path style="fill:#fafafa" d="M 27,11 18,2 V 9.59375 C 18,10.373375 18.62775,11 19.40625,11 Z"/>
 <path style="opacity:0.2;fill:#ffffff" d="M 6.375,2 C 5.61325,2 5,2.6247906 5,3.4003906 v 1 C 5,3.6247906 5.61325,3 6.375,3 H 18 V 2 Z"/>
 <path style="opacity:0.5" d="m 11,18 v 8.1 c 4.6e-5,0.471219 0.433116,0.899931 0.909091,0.9 h 8.182318 C 20.567134,27 21,26.571462 21,26.1 V 18 Z"/>
 <path style="opacity:0.5" d="M 10.000184,15.976128 V 17 L 22,16.9966 21.999816,15.976104 c 0,-0.998857 -0.922861,-0.976116 -0.922861,-0.976116 h -3.069413 c 0,0 0,-0.999959 -0.923085,-0.999959 l -2.168914,2.4e-5 c -0.923086,0 -0.923086,0.999958 -0.923086,0.999958 h -3.069221 c 0,0 -0.923236,-0.02312 -0.923236,0.976116 z"/>
</svg>

<svg xmlns="http://www.w3.org/2000/svg" width="32" height="32"><path style="opacity:.2" d="M6.375 3C5.613 3 5 3.624 5 4.4v25.2c0 .775.613 1.4 1.375 1.4h19.25c.761 0 1.375-.625 1.375-1.4V12l-7-2-2-7z"/><path style="fill:#e4e4e4" d="M6.375 2C5.613 2 5 2.624 5 3.4v25.2c0 .775.613 1.4 1.375 1.4h19.25c.761 0 1.375-.625 1.375-1.4V11l-7-2-2-7z"/><path style="opacity:.2" d="m27 12-9-9v7.594c0 .78.628 1.406 1.406 1.406z"/><path style="fill:#fafafa" d="m27 11-9-9v7.594c0 .78.628 1.406 1.406 1.406z"/><path style="opacity:.2;fill:#fff" d="M6.375 2C5.613 2 5 2.625 5 3.4v1C5 3.625 5.613 3 6.375 3H18V2z"/><path style="opacity:.5" d="M11 18v8.1c0 .471.433.9.91.9h8.181c.476 0 .909-.429.909-.9V18zM10 15.976V17l12-.003v-1.02c0-1-.923-.977-.923-.977h-3.07s0-1-.923-1h-2.168c-.924 0-.924 1-.924 1h-3.069s-.923-.023-.923.976z"/></svg>
